images/arrow_right.svg

<svg width="26" height="16" viewBox="0 0 26 16" fill="none" xmlns="http://www.w3.org/2000/svg">
<path d="M25.5435 8.52351C25.9341 8.13299 25.9341 7.49982 25.5435 7.1093L19.1796 0.745338C18.789 0.354814 18.1559 0.354814 17.7654 0.745338C17.3748 1.13586 17.3748 1.76903 17.7654 2.15955L23.4222 7.81641L17.7654 13.4733C17.3748 13.8638 17.3748 14.4969 17.7654 14.8875C18.1559 15.278 18.789 15.278 19.1796 14.8875L25.5435 8.52351ZM0.836426 8.81641H24.8364V6.81641H0.836426V8.81641Z" fill="#C19E5C"/>
</svg>

<svg width="26" height="16" fill="none" xmlns="http://www.w3.org/2000/svg"><path d="M25.544 8.524a1 1 0 000-1.415L19.18.745a1 1 0 10-1.415 1.415l5.657 5.656-5.657 5.657a1 1 0 101.415 1.414l6.364-6.363zM.836 8.816h24v-2h-24v2z" fill="#C19E5C"/></svg>
